X: 822
M: 6/4
L: 1/8
K: G
g4d2- d2B2G2 | =f4c2- c2A2=F2 | g4d2 g2d2B2 | g4d2 d2B2G2 |]
[|\
(BABcd)B (dcBcd)B | (=fcAc=f)c (cBABc)A | (BABcd)B (dcBcd)B | (gdBdg)d dcBAG2 |]
[| g2BcdB d2BcdB | =f2ABcA c2ABcA | g2BcdB d2BcdB | g2BcdB d2B2G2 |]

